X:225
T: Malamute's Fancy Hornpipe
C: BB
M: C|
L: 1/8
Q: 1/8=330
R: hornpipe
K: G
D|"G"GBBA "Em"BGEF|"G"G2Bd "Em"eBdB|"Am"cBAc "G"BGFG|"Am7"EGAB "D7"cAFD|
"G"GBBA "Em"BGEF|"G"G2Bd "Em"efge|"G" dB (3BAB "C"cGEG|"D"FADF "G"G3 :|
A|"G"(3Bcd ef "C"gfge|"G"dBGB "Am7"AGEF|"G"GBdg "D"afdf|"C"gfge "D"d2 dc|
"G"(3Bcd ef "C"gfge|"G"dBGB "Am"ABce|"G"dgfg "Em"efge|"D7"dBcA "G"G3 :|
